X: 15562
T: Gloria
R: barndance
M: 4/4
K: Cmajor
|:C2 E2 G4|c2 B2 A2 G2|D2 E2 F2 A2|G8|
C2 E2 G4|c2 B2 A2 G2|A2 B2 c2 d2|c8|
d2 c2 B2 A2|G2 A2 B2 c2|B2 A2 G2 F2|G8|
d2 c2 B2 A2|G2 A2 B2 c2|d2 e2 f2 d2|c8:|
|:D2 E2 F2 D2|C8:|D2 E2 F2 D2|E2 F2 G2 E2|
F2 G2 F2 D2|C8||

